elementary-icon-theme/elementary/actions/48/bookmark-new.svg

<?xml version="1.0" encoding="UTF-8" standalone="no"?>
<!-- Created with Inkscape (http://www.inkscape.org/) -->

<svg
   xmlns:dc="http://purl.org/dc/elements/1.1/"
   xmlns:cc="http://creativecommons.org/ns#"
   xmlns:rdf="http://www.w3.org/1999/02/22-rdf-syntax-ns#"
   xmlns:svg="http://www.w3.org/2000/svg"
   xmlns="http://www.w3.org/2000/svg"
   xmlns:xlink="http://www.w3.org/1999/xlink"
   xmlns:sodipodi="http://sodipodi.sourceforge.net/DTD/sodipodi-0.dtd"
   xmlns:inkscape="http://www.inkscape.org/namespaces/inkscape"
   width="48px"
   height="48px"
   id="svg3692"
   version="1.1"
   inkscape:version="0.47 r22583"
   sodipodi:docname="bookmark-new.svg">
  <defs
     id="defs3694">
    <linearGradient
       inkscape:collect="always"
       xlink:href="#linearGradient8265-821-176-38-919-66-249"
       id="linearGradient3619"
       gradientUnits="userSpaceOnUse"
       gradientTransform="translate(2.9799125,-3.1216548)"
       x1="11.566265"
       y1="22.292103"
       x2="15.214532"
       y2="33.95525" />
    <linearGradient
       id="linearGradient8265-821-176-38-919-66-249">
      <stop
         id="stop2687"
         style="stop-color:#ffffff;stop-opacity:0.27450982"
         offset="0" />
      <stop
         id="stop2689"
         style="stop-color:#ffffff;stop-opacity:0"
         offset="1" />
    </linearGradient>
    <linearGradient
       inkscape:collect="always"
       xlink:href="#linearGradient3642"
       id="linearGradient3648"
       x1="29.646643"
       y1="2"
       x2="29.646643"
       y2="43.443626"
       gradientUnits="userSpaceOnUse" />
    <linearGradient
       id="linearGradient3642">
      <stop
         style="stop-color:#ffffff;stop-opacity:1;"
         offset="0"
         id="stop3644" />
      <stop
         style="stop-color:#ffffff;stop-opacity:0;"
         offset="1"
         id="stop3646" />
    </linearGradient>
    <radialGradient
       inkscape:collect="always"
       xlink:href="#linearGradient3690"
       id="radialGradient3627"
       gradientUnits="userSpaceOnUse"
       gradientTransform="matrix(0,2.6540647,-3.1628087,0,97.182609,-26.675837)"
       cx="13.138569"
       cy="25.625349"
       fx="13.138569"
       fy="25.625349"
       r="13.931416" />
    <linearGradient
       id="linearGradient3690">
      <stop
         id="stop3692"
         style="stop-color:#ffeb9f;stop-opacity:1"
         offset="0" />
      <stop
         id="stop3694"
         style="stop-color:#ffd57e;stop-opacity:1"
         offset="0.26238" />
      <stop
         id="stop3696"
         style="stop-color:#ffbc43;stop-opacity:1"
         offset="0.66093999" />
      <stop
         id="stop3698"
         style="stop-color:#ff921a;stop-opacity:1"
         offset="1" />
    </linearGradient>
    <linearGradient
       inkscape:collect="always"
       xlink:href="#linearGradient3603"
       id="linearGradient3629"
       gradientUnits="userSpaceOnUse"
       gradientTransform="matrix(1.6508808,0,0,1.6568311,-11.466494,-15.045759)"
       x1="21.483376"
       y1="36.255058"
       x2="21.483376"
       y2="9.5799999" />
    <linearGradient
       id="linearGradient3603">
      <stop
         id="stop3605"
         style="stop-color:#a7651c;stop-opacity:1"
         offset="0" />
      <stop
         id="stop3607"
         style="stop-color:#c8a700;stop-opacity:1"
         offset="1" />
    </linearGradient>
    <linearGradient
       id="linearGradient8838">
      <stop
         id="stop8840"
         style="stop-color:#000000;stop-opacity:1"
         offset="0" />
      <stop
         id="stop8842"
         style="stop-color:#000000;stop-opacity:0"
         offset="1" />
    </linearGradient>
    <radialGradient
       r="10.625"
       fy="4.625"
       fx="62.625"
       cy="4.625"
       cx="62.625"
       gradientTransform="matrix(2.1647059,0,0,0.84705771,-111.56471,35.082353)"
       gradientUnits="userSpaceOnUse"
       id="radialGradient3690"
       xlink:href="#linearGradient8838"
       inkscape:collect="always" />
    <linearGradient
       inkscape:collect="always"
       xlink:href="#linearGradient3943"
       id="linearGradient5530"
       gradientUnits="userSpaceOnUse"
       gradientTransform="matrix(0.59881541,0,0,0.59520313,23.605196,21.21913)"
       x1="22.368837"
       y1="8.0323315"
       x2="22.368837"
       y2="38.274109" />
    <linearGradient
       id="linearGradient3943">
      <stop
         style="stop-color:#ffffff;stop-opacity:1;"
         offset="0"
         id="stop3945" />
      <stop
         style="stop-color:#ffffff;stop-opacity:0;"
         offset="1"
         id="stop3947" />
    </linearGradient>
    <linearGradient
       id="linearGradient3242-7">
      <stop
         offset="0"
         style="stop-color:#eef87e;stop-opacity:1"
         id="stop3244-5" />
      <stop
         offset="0.26238"
         style="stop-color:#cde34f;stop-opacity:1"
         id="stop3246-9" />
      <stop
         offset="0.66093999"
         style="stop-color:#93b723;stop-opacity:1"
         id="stop3248-7" />
      <stop
         offset="1"
         style="stop-color:#5a7e0d;stop-opacity:1"
         id="stop3250-8" />
    </linearGradient>
    <linearGradient
       id="linearGradient2490-3">
      <stop
         offset="0"
         style="stop-color:#365f0e;stop-opacity:1"
         id="stop2492-3" />
      <stop
         offset="1"
         style="stop-color:#84a718;stop-opacity:1"
         id="stop2494-8" />
    </linearGradient>
    <radialGradient
       r="31.000002"
       fy="51.694645"
       fx="69.447609"
       cy="51.694645"
       cx="69.447609"
       gradientTransform="matrix(0,0.67923629,-0.73892459,0,72.902805,-19.489952)"
       gradientUnits="userSpaceOnUse"
       id="radialGradient2885"
       xlink:href="#linearGradient3242-7"
       inkscape:collect="always" />
    <linearGradient
       y2="52.809361"
       x2="72.421684"
       y1="123.19138"
       x1="72.421684"
       gradientTransform="matrix(0.28214379,0,0,0.28445169,12.171345,9.958204)"
       gradientUnits="userSpaceOnUse"
       id="linearGradient2887"
       xlink:href="#linearGradient2490-3"
       inkscape:collect="always" />
  </defs>
  <sodipodi:namedview
     id="base"
     pagecolor="#ffffff"
     bordercolor="#666666"
     borderopacity="1.0"
     inkscape:pageopacity="0.0"
     inkscape:pageshadow="2"
     inkscape:zoom="7"
     inkscape:cx="24"
     inkscape:cy="24"
     inkscape:current-layer="layer1"
     showgrid="true"
     inkscape:grid-bbox="true"
     inkscape:document-units="px"
     inkscape:window-width="603"
     inkscape:window-height="484"
     inkscape:window-x="417"
     inkscape:window-y="162"
     inkscape:window-maximized="0" />
  <metadata
     id="metadata3697">
    <rdf:RDF>
      <cc:Work
         rdf:about="">
        <dc:format>image/svg+xml</dc:format>
        <dc:type
           rdf:resource="http://purl.org/dc/dcmitype/StillImage" />
        <dc:title></dc:title>
      </cc:Work>
    </rdf:RDF>
  </metadata>
  <g
     id="layer1"
     inkscape:label="Layer 1"
     inkscape:groupmode="layer">
    <path
       style="opacity:0.3;fill:url(#radialGradient3690);fill-opacity:1;fill-rule:evenodd;stroke:none;stroke-width:0.99999988;marker:none;visibility:visible;display:inline;overflow:visible"
       id="path8836"
       d="m 47,39 c 0,4.970563 -10.297453,9 -23,9 -12.702548,0 -23,-4.029437 -23,-9 0,-4.970563 10.297452,-9 23,-9 12.702547,0 23,4.029437 23,9 l 0,0 z" />
    <path
       style="fill:url(#radialGradient3627);fill-opacity:1;fill-rule:nonzero;stroke:url(#linearGradient3629);stroke-width:0.9922713;stroke-linecap:butt;stroke-linejoin:round;stroke-miterlimit:4;stroke-opacity:1;stroke-dasharray:none;stroke-dashoffset:0;marker:none;visibility:visible;display:inline;overflow:visible"
       id="path1307"
       d="m 23.999999,1.4961347 c 1.518797,0 6.415369,12.2754723 7.644103,13.1714173 1.228732,0.895944 14.374596,1.776317 14.843931,3.225986 0.469334,1.449669 -9.650283,9.916699 -10.119617,11.366368 -0.469334,1.449669 2.758685,14.269241 1.529951,15.165186 -1.228733,0.895944 -12.379571,-6.146615 -13.89837,-6.146615 -1.518797,0 -12.669635,7.042559 -13.898369,6.146615 C 8.8728956,43.529147 12.100914,30.709574 11.63158,29.259906 11.162246,27.810237 1.0426298,19.343205 1.5119642,17.893536 1.9812985,16.443869 15.127162,15.563496 16.355896,14.667552 17.584628,13.771607 22.481202,1.4961347 23.999999,1.4961347 z" />
    <path
       style="opacity:0.3;fill:none;stroke:#ffffff;stroke-width:1;stroke-linecap:butt;stroke-linejoin:miter;stroke-miterlimit:4;stroke-opacity:1;stroke-dasharray:none;display:inline"
       id="path11014"
       d="m 36.457966,42.854576 c 0,0 -4.318414,-3.742625 -10.076299,-4.894202" />
    <path
       style="opacity:0.3;fill:none;stroke:#ffffff;stroke-width:1;stroke-linecap:butt;stroke-linejoin:miter;stroke-miterlimit:4;stroke-opacity:1;stroke-dasharray:none;display:inline"
       id="path11985"
       d="m 11.175618,42.854576 c 0,0 4.318413,-3.742625 10.076298,-4.894202" />
    <path
       style="opacity:0.4;fill:none;stroke:url(#linearGradient3648);stroke-width:0.99999994;stroke-linecap:butt;stroke-linejoin:round;stroke-miterlimit:4;stroke-opacity:1;stroke-dasharray:none;stroke-dashoffset:0;marker:none;visibility:visible;display:inline;overflow:visible"
       id="path1309"
       d="m 24,2.5 c 2.255601,4.3171106 4.478429,8.952433 6.73403,13.269542 4.843973,0.789864 10.26201,1.380836 14.771263,2.50542 -3.449934,3.457984 -6.875961,7.131147 -10.325895,10.589132 0.738138,4.805274 1.213021,9.259541 1.95116,14.064815 C 32.742781,40.748952 28.355003,38.568994 23.967226,36.389035 19.579447,38.568994 15.19167,40.748952 10.803892,42.928909 11.542029,38.123635 11.929163,33.581617 12.6673,28.776343 9.2173666,25.318358 5.9355586,21.692246 2.4856257,18.234262 7.329597,17.444398 12.356449,16.559406 17.20042,15.769542 19.456021,11.452433 21.744398,6.8171106 24,2.5 z" />
    <path
       style="opacity:0.8;fill:url(#linearGradient3619);fill-opacity:1;fill-rule:nonzero;stroke:none;stroke-width:1;marker:none;visibility:visible;display:inline;overflow:visible;enable-background:accumulate"
       id="path3382"
       d="m 24.023909,2.0218291 c 0,0 4.502337,7.4701031 7.020932,13.3173589 4.843973,0.789864 10.309827,1.404745 14.914715,2.720597 0,0 -2.463879,2.468624 -3.480641,3.487759 0,0 -31.782299,5.712288 -31.782299,5.712288 C 7.7999341,24.283482 4.5120994,21.39468 1.9615429,18.048297 5.5144527,16.97153 12.093455,16.105144 16.937426,15.31528 20.29282,7.4118887 24.023909,2.0218291 24.023909,2.0218291 z" />
    <path
       style="color:#000000;fill:url(#radialGradient2885);fill-opacity:1;fill-rule:nonzero;stroke:url(#linearGradient2887);stroke-width:0.98542732;stroke-linecap:round;stroke-linejoin:round;stroke-miterlimit:4;stroke-opacity:1;stroke-dasharray:none;stroke-dashoffset:0;marker:none;visibility:visible;display:inline;overflow:visible;enable-background:accumulate"
       d="m 33.500001,31.5 0,-6.02737 7,0 0,6.02737 6.007286,0 0,7 -6.007286,0 0,6.007286 -7,0 0,-6.007286 -6.007287,0 0,-7 6.007287,0 z"
       id="path2262"
       sodipodi:nodetypes="ccccccccccccc" />
    <path
       style="opacity:0.4;fill:none;stroke:url(#linearGradient5530);stroke-width:1;stroke-linecap:butt;stroke-linejoin:miter;stroke-miterlimit:4;stroke-opacity:1;stroke-dasharray:none;display:inline"
       d="m 34.500001,32.5 0,-6.000001 5,0 0,6.000001 6,0 0,5 -6,0 0,6 -5,0 0,-6 -6,0 0,-5 6,0 z"
       id="path2272"
       sodipodi:nodetypes="ccccccccccccc" />
  </g>
</svg>

<?xml version="1.0" encoding="UTF-8" standalone="no"?>
<!-- Created with Inkscape (http://www.inkscape.org/) -->
<svg
   xmlns:svg="http://www.w3.org/2000/svg"
   xmlns="http://www.w3.org/2000/svg"
   xmlns:xlink="http://www.w3.org/1999/xlink"
   version="1.0"
   width="48"
   height="48"
   id="svg3581">
  <defs
     id="defs3583">
    <linearGradient
       id="linearGradient8838">
      <stop
         id="stop8840"
         style="stop-color:#000000;stop-opacity:1"
         offset="0" />
      <stop
         id="stop8842"
         style="stop-color:#000000;stop-opacity:0"
         offset="1" />
    </linearGradient>
    <radialGradient
       cx="62.625"
       cy="4.625"
       r="10.625"
       fx="62.625"
       fy="4.625"
       id="radialGradient2591"
       xlink:href="#linearGradient8838"
       gradientUnits="userSpaceOnUse"
       gradientTransform="matrix(2.0705882,0,0,0.7529402,-105.67058,35.517647)" />
    <linearGradient
       id="linearGradient3903">
      <stop
         id="stop3905"
         style="stop-color:#a05400;stop-opacity:1"
         offset="0" />
      <stop
         id="stop3907"
         style="stop-color:#c8a000;stop-opacity:1"
         offset="1" />
    </linearGradient>
    <linearGradient
       x1="21.483376"
       y1="36.255058"
       x2="21.483376"
       y2="9.5799999"
       id="linearGradient2588"
       xlink:href="#linearGradient3903"
       gradientUnits="userSpaceOnUse"
       gradientTransform="matrix(1.6508808,0,0,1.6568311,-11.466494,-15.045759)" />
    <linearGradient
       id="linearGradient3373">
      <stop
         id="stop3375"
         style="stop-color:#ffeb65;stop-opacity:1"
         offset="0" />
      <stop
         id="stop3377"
         style="stop-color:#ff921a;stop-opacity:1"
         offset="1" />
    </linearGradient>
    <radialGradient
       cx="13.138569"
       cy="25.625349"
       r="13.931416"
       fx="13.138569"
       fy="25.625349"
       id="radialGradient2586"
       xlink:href="#linearGradient3373"
       gradientUnits="userSpaceOnUse"
       gradientTransform="matrix(0,2.6540647,-3.1628087,0,97.182609,-26.675837)" />
    <linearGradient
       id="linearGradient4222">
      <stop
         id="stop4224"
         style="stop-color:#ffffff;stop-opacity:1"
         offset="0" />
      <stop
         id="stop4226"
         style="stop-color:#ffffff;stop-opacity:0"
         offset="1" />
    </linearGradient>
    <linearGradient
       x1="24.138529"
       y1="6.5316639"
       x2="24.138529"
       y2="45.690399"
       id="linearGradient2568"
       xlink:href="#linearGradient4222"
       gradientUnits="userSpaceOnUse"
       gradientTransform="matrix(0.5399382,0,0,0.5366811,-39.283657,23.13804)" />
    <linearGradient
       id="linearGradient2264">
      <stop
         id="stop2266"
         style="stop-color:#d7e866;stop-opacity:1"
         offset="0" />
      <stop
         id="stop2268"
         style="stop-color:#8cab2a;stop-opacity:1"
         offset="1" />
    </linearGradient>
    <linearGradient
       x1="24.103895"
       y1="15.180944"
       x2="24.103895"
       y2="34.224861"
       id="linearGradient2566"
       xlink:href="#linearGradient2264"
       gradientUnits="userSpaceOnUse"
       gradientTransform="matrix(0.8988874,0,0,0.8934652,-47.898438,15.078266)" />
    <linearGradient
       id="linearGradient5178">
      <stop
         id="stop5180"
         style="stop-color:#ffffff;stop-opacity:1"
         offset="0" />
      <stop
         id="stop6155"
         style="stop-color:#ffdea1;stop-opacity:1"
         offset="0.8918919" />
      <stop
         id="stop5182"
         style="stop-color:#ffbd43;stop-opacity:0"
         offset="1" />
    </linearGradient>
    <linearGradient
       x1="21.483376"
       y1="9.463129"
       x2="21.483376"
       y2="26.294357"
       id="linearGradient2575"
       xlink:href="#linearGradient5178"
       gradientUnits="userSpaceOnUse"
       gradientTransform="matrix(1.5575239,0,0,1.5420736,-9.4936458,-12.492178)" />
    <linearGradient
       id="linearGradient8265-821-176-38-919-66-249">
      <stop
         id="stop2687"
         style="stop-color:#ffffff;stop-opacity:0.27450982"
         offset="0" />
      <stop
         id="stop2689"
         style="stop-color:#ffffff;stop-opacity:0"
         offset="1" />
    </linearGradient>
    <linearGradient
       x1="11.566265"
       y1="22.292103"
       x2="15.214532"
       y2="33.95525"
       id="linearGradient3553"
       xlink:href="#linearGradient8265-821-176-38-919-66-249"
       gradientUnits="userSpaceOnUse"
       gradientTransform="translate(2.9799125,-3.1216548)" />
  </defs>
  <g
     id="layer1">
    <path
       d="M 46.000006,39 C 46.000006,43.418278 36.150269,47 24.000006,47 C 11.849743,47 2.0000064,43.418278 2.0000064,39 C 2.0000064,34.581722 11.849743,31 24.000006,31 C 36.150269,31 46.000006,34.581722 46.000006,39 L 46.000006,39 z"
       id="path8836"
       style="opacity:0.3;fill:url(#radialGradient2591);fill-opacity:1;fill-rule:evenodd;stroke:none;stroke-width:0.99999988;stroke-linecap:butt;stroke-linejoin:round;marker:none;marker-start:none;marker-mid:none;marker-end:none;stroke-miterlimit:4;stroke-dasharray:none;stroke-dashoffset:0;stroke-opacity:1;visibility:visible;display:inline;overflow:visible" />
    <path
       d="M 23.999999,1.4961347 C 25.518796,1.4961347 30.415368,13.771607 31.644102,14.667552 C 32.872834,15.563496 46.018698,16.443869 46.488033,17.893538 C 46.957367,19.343207 36.83775,27.810237 36.368416,29.259906 C 35.899082,30.709575 39.127101,43.529147 37.898367,44.425092 C 36.669634,45.321036 25.518796,38.278477 23.999997,38.278477 C 22.4812,38.278477 11.330362,45.321036 10.101628,44.425092 C 8.8728956,43.529147 12.100914,30.709574 11.63158,29.259906 C 11.162246,27.810237 1.0426298,19.343205 1.5119642,17.893536 C 1.9812985,16.443869 15.127162,15.563496 16.355896,14.667552 C 17.584628,13.771607 22.481202,1.4961347 23.999999,1.4961347 z"
       id="path1307"
       style="fill:url(#radialGradient2586);fill-opacity:1;fill-rule:nonzero;stroke:url(#linearGradient2588);stroke-width:0.9922713;stroke-linecap:butt;stroke-linejoin:round;marker:none;marker-start:none;marker-mid:none;marker-end:none;stroke-miterlimit:4;stroke-dasharray:none;stroke-dashoffset:0;stroke-opacity:1;visibility:visible;display:inline;overflow:visible" />
    <path
       d="M 36.457966,42.854576 C 36.457966,42.854576 32.139552,39.111951 26.381667,37.960374"
       id="path11014"
       style="opacity:0.3;fill:none;fill-rule:evenodd;stroke:#ffffff;stroke-width:1;stroke-linecap:butt;stroke-linejoin:miter;stroke-miterlimit:4;stroke-dasharray:none;stroke-opacity:1;display:inline" />
    <path
       d="M 11.175618,42.854576 C 11.175618,42.854576 15.494031,39.111951 21.251916,37.960374"
       id="path11985"
       style="opacity:0.3;fill:none;fill-rule:evenodd;stroke:#ffffff;stroke-width:1;stroke-linecap:butt;stroke-linejoin:miter;stroke-miterlimit:4;stroke-dasharray:none;stroke-opacity:1;display:inline" />
    <g
       transform="translate(64.434734,2.355762)"
       id="g2577">
      <path
         d="M -29.868354,32.139057 L -29.868354,26.144238 L -22.934734,26.144238 L -22.934734,32.139057 L -16.934734,32.139057 L -16.934734,39.144238 L -22.934734,39.144238 L -22.934734,45.144238 L -29.874462,45.144238 L -29.902331,39.144238 L -35.934734,39.144238 L -35.934734,32.139057 L -29.868354,32.139057 z"
         id="path2543"
         style="fill:url(#linearGradient2566);fill-opacity:1;fill-rule:evenodd;stroke:#699536;stroke-width:1;stroke-linecap:butt;stroke-linejoin:round;stroke-miterlimit:4;stroke-dasharray:none;stroke-opacity:1;display:inline" />
      <path
         d="M -28.934734,33.139057 L -28.934734,27.144238 L -23.934734,27.144238 L -23.934734,33.139057 L -17.934734,33.139057 L -17.934734,38.144238 L -23.934734,38.144238 L -23.934734,44.144238 L -28.934734,44.144238 L -28.934734,38.144238 L -34.934734,38.144238 L -34.934734,33.139057 L -28.934734,33.139057 z"
         id="path2545"
         style="opacity:0.4;fill:none;fill-opacity:1;fill-rule:evenodd;stroke:url(#linearGradient2568);stroke-width:1;stroke-linecap:butt;stroke-linejoin:miter;stroke-miterlimit:4;stroke-dasharray:none;stroke-opacity:1;display:inline" />
    </g>
    <path
       d="M 24,2.5 C 26.255601,6.8171106 28.478429,11.452433 30.73403,15.769542 C 35.578003,16.559406 40.99604,17.150378 45.505293,18.274962 C 42.055359,21.732946 38.629332,25.406109 35.179398,28.864094 C 35.917536,33.669368 36.392419,38.123635 37.130558,42.928909 C 32.742781,40.748952 28.355003,38.568994 23.967226,36.389035 C 19.579447,38.568994 15.19167,40.748952 10.803892,42.928909 C 11.542029,38.123635 11.929163,33.581617 12.6673,28.776343 C 9.2173666,25.318358 5.9355586,21.692246 2.4856257,18.234262 C 7.329597,17.444398 12.356449,16.559406 17.20042,15.769542 C 19.456021,11.452433 21.744398,6.8171106 24,2.5 z"
       id="path1309"
       style="opacity:0.5;fill:none;fill-opacity:1;fill-rule:nonzero;stroke:url(#linearGradient2575);stroke-width:0.99999994;stroke-linecap:butt;stroke-linejoin:round;marker:none;marker-start:none;marker-mid:none;marker-end:none;stroke-miterlimit:4;stroke-dasharray:none;stroke-dashoffset:0;stroke-opacity:1;visibility:visible;display:inline;overflow:visible" />
    <path
       d="M 24.023909,2.0218291 C 24.023909,2.0218291 28.526246,9.4919322 31.044841,15.339188 C 35.888814,16.129052 41.354668,16.743933 45.959556,18.059785 C 45.959556,18.059785 43.495677,20.528409 42.478915,21.547544 C 42.478915,21.547544 10.696616,27.259832 10.696616,27.259832 C 7.7999341,24.283482 4.5120994,21.39468 1.9615429,18.048297 C 5.5144527,16.97153 12.093455,16.105144 16.937426,15.31528 C 20.29282,7.4118887 24.023909,2.0218291 24.023909,2.0218291 z"
       id="path3382"
       style="opacity:1;fill:url(#linearGradient3553);fill-opacity:1;fill-rule:nonzero;stroke:none;stroke-width:1;stroke-linecap:round;stroke-linejoin:round;marker:none;marker-start:none;marker-mid:none;marker-end:none;stroke-miterlimit:4;stroke-dasharray:none;stroke-dashoffset:0;stroke-opacity:1;visibility:visible;display:inline;overflow:visible;enable-background:accumulate" />
  </g>
</svg>
